GNOME++/actions/symbolic/map-symbolic.svg

<svg xmlns="http://www.w3.org/2000/svg" width="16" height="16" version="1.1">
 <g transform="translate(-31.97559,-220.36218)">
  <path fill="#444" d="m40.00684 220.86218c-4.136213 0-7.5 3.36379-7.5 7.5s3.363787 7.5 7.5 7.5 7.5-3.36379 7.5-7.5-3.363787-7.5-7.5-7.5zm0 1c3.595773 0 6.5 2.90423 6.5 6.5s-2.904227 6.5-6.5 6.5-6.5-2.90423-6.5-6.5 2.904227-6.5 6.5-6.5z"/>
  <path fill="#444" d="m15.03125 1-9 5 1.28125 1.28125c0.1809644-0.1809644 0.4426076-0.28125 0.71875-0.28125 0.5522847 0 1 0.4477153 1 1 0 0.2672084-0.1417563 0.5081113-0.3125 0.6875-0.0057088 0.0059978 0.0058547 0.0253953 0 0.03125l1.3125 1.28125 5-9z" transform="translate(31.97559,220.36218)"/>
  <path d="m6.03125 6-5 9 9-5-1.3125-1.28125c-0.1809644 0.1809644-0.4113576 0.28125-0.6875 0.28125-0.5522847 0-1-0.4477153-1-1 0-0.2761424 0.1002856-0.5377856 0.28125-0.71875l-1.28125-1.28125z" transform="translate(31.97559,220.36218)" style="fill:#444;opacity:.5"/>
 </g>
</svg>

<svg xmlns="http://www.w3.org/2000/svg" fill="none" width="16" height="16" viewBox="0 0 16 16">
 <g clip-path="url(#clip0)">
  <path fill="#444" fill-rule="evenodd" d="M8 13C10.7614 13 13 10.7614 13 8C13 5.23858 10.7614 3 8 3C5.23858 3 3 5.23858 3 8C3 10.7614 5.23858 13 8 13ZM8 15C11.866 15 15 11.866 15 8C15 4.13401 11.866 1 8 1C4.13401 1 1 4.13401 1 8C1 11.866 4.13401 15 8 15Z" clip-rule="evenodd"/>
  <path fill="#444" d="M15.0312 1L6.03125 6L7.3125 7.28125C7.49346 7.10029 7.75511 7 8.03125 7C8.58353 7 9.03125 7.44772 9.03125 8C9.03125 8.26721 8.88949 8.50811 8.71875 8.6875C8.71304 8.6935 8.7246 8.7129 8.71875 8.71875L10.0312 10L15.0312 1Z"/>
  <path fill="#444" opacity=".5" d="M6.03125 6L1.03125 15L10.0312 10L8.71875 8.71875C8.53779 8.89971 8.30739 9 8.03125 9C7.47897 9 7.03125 8.55228 7.03125 8C7.03125 7.72386 7.13154 7.46221 7.3125 7.28125L6.03125 6Z"/>
 </g>
 <defs>
  <clipPath id="clip0">
   <rect fill="#fff" width="16" height="16"/>
  </clipPath>
 </defs>
</svg>
